X:1
T:Lattimore, 87.87 D
T:Ira David Sankey, 1878
T:Lattimore, 87.87 D
T:Public Domain
C:Ira David Sankey, 1878
Z:Public Domain
%%score 1 ( 2 3 )
L:1/8
M:3/4
K:G
V:1 treble 
V:2 bass 
V:3 bass 
V:1
 [B,D]>[B,G] | [DB]2 [DB]2 [DB]>[GB] | [Fc]2 [Fc]2 [Fc]>[Fc] | [Fd]3 [FA] [GB]>[Ac] | %4
 [GB]4 [DG]>[DF] | [DF]2 [CE]2 [EG]>[CE] | [CE]2 [B,D]2 [DG][DB] | [Fd]3 [Fc] [DF]>[DA] | %8
 [DG]4 [GB]>[Gc] | [Gd]2 [Gd]2 [^Ge]>[GB] | [Ac]2 [Ac]2 [FA]>[FB] | [Fc]3 [F^c] [Fd]>[FA] | %12
 [GB]4 [GB]>[DA] | [DG]3 [DG] [DB][=Fd] | [Ed]2 [Ec]2 [EB]>[_EA] | [DG]3 [DG] .[CG][CF] | [B,G]4 |] %17
V:2
 G,>G, | G,2 G,2 G,>[G,D] | [A,D]2 [A,D]2 [A,D]>[A,D] | [D,D]3 [D,D] [D,D]>[D,D] | %4
 [G,D]4 [B,,G,]>[B,,G,] | [C,G,]2 [C,G,]2 [C,G,]>[E,G,] | G,2 [G,,G,]2 [G,B,]G, | %7
 [D,A,]3 [D,A,] [D,C]>[D,C] | [G,B,]4 G,>[G,A,] | [G,B,]2 [G,B,]2 [E,B,]>[E,E] | %10
 [A,E]2 [A,E]2 [D,C]>[D,B,] | [D,A,]3 [D,A,] [D,A,]>[D,D] | [G,B,]4 [G,D]>[G,C] | %13
 [G,B,]3 [G,B,] G,[B,,G,] | [C,G,]2 [C,G,]2 [C,D]>[C,C] | [D,B,]3 [D,B,] .[D,A,][D,A,] | %16
 [G,,G,]4 |] %17
V:3
 G,>G, | G,2 G,2 G,3/2 x/ | x6 | x6 | x6 | x6 | G,2 x G, x2 | x6 | x4 G,3/2 x/ | x6 | x6 | x6 | %12
 x6 | x4 G, x | x6 | x6 | x4 |] %17

